dataset/librecad/icon.svg

<?xml version="1.0" encoding="UTF-8" standalone="no"?>
<svg
   width="128"
   height="128"
   version="1"
   id="svg44"
   xml:space="preserve"
   xmlns:xlink="http://www.w3.org/1999/xlink"
   xmlns="http://www.w3.org/2000/svg"
   xmlns:svg="http://www.w3.org/2000/svg"><defs
     id="defs48"><linearGradient
       xlink:href="#linearGradient1571"
       id="linearGradient1573"
       x1="12"
       y1="66"
       x2="116"
       y2="66"
       gradientUnits="userSpaceOnUse"
       gradientTransform="translate(3.8146973e-6)" /><linearGradient
       id="linearGradient1571"><stop
         style="stop-color:#000000;stop-opacity:1;"
         offset="0"
         id="stop1567" /><stop
         style="stop-color:#ffffff;stop-opacity:1;"
         offset="0.03567462"
         id="stop1575" /><stop
         style="stop-color:#000000;stop-opacity:1;"
         offset="0.07302466"
         id="stop1577" /><stop
         style="stop-color:#000000;stop-opacity:0.99000001;"
         offset="0.92681795"
         id="stop1579" /><stop
         style="stop-color:#ffffff;stop-opacity:1;"
         offset="0.96064132"
         id="stop1581" /><stop
         style="stop-color:#000000;stop-opacity:1;"
         offset="1"
         id="stop1569" /></linearGradient></defs><rect
     style="display:inline;fill:#ffffff;fill-opacity:1;stroke:none;stroke-width:0.25;stroke-linecap:butt;stroke-linejoin:miter;stroke-miterlimit:4;stroke-dasharray:none;stroke-dashoffset:0;stroke-opacity:1;marker:none;marker-start:none;marker-mid:none;marker-end:none;paint-order:normal;enable-background:new"
     id="rect8"
     width="104"
     height="100"
     x="12.000004"
     y="15.999996"
     rx="8"
     ry="8" /><path
     id="path7"
     style="fill:#8ed900"
     class="fil1"
     d="M 103.86133,116 H 108 c 4.42904,0 7.99524,-3.56235 8,-7.99023 v -4.14844 h -12.13867 z" /><path
     id="path8"
     style="fill:#8ed900"
     class="fil1"
     d="m 12,103.86133 v 4.14453 C 12.003,112.43526 15.569871,116 20,116 h 4.138672 v -12.13867 z" /><rect
     style="display:inline;opacity:0.4;fill:url(#linearGradient1573);fill-opacity:1;stroke:none;stroke-width:0.25;stroke-linecap:butt;stroke-linejoin:miter;stroke-miterlimit:4;stroke-dasharray:none;stroke-dashoffset:0;stroke-opacity:1;marker:none;marker-start:none;marker-mid:none;marker-end:none;paint-order:normal;enable-background:new"
     id="rect1711-5"
     width="104"
     height="100"
     x="12.000004"
     y="15.999996"
     rx="8"
     ry="8" /><rect
     style="display:inline;fill:#ffffff;fill-opacity:1;stroke:none;stroke-width:0.25;stroke-linecap:butt;stroke-linejoin:miter;stroke-miterlimit:4;stroke-dasharray:none;stroke-dashoffset:0;stroke-opacity:1;marker:none;marker-start:none;marker-mid:none;marker-end:none;paint-order:normal;enable-background:new"
     id="rect1711"
     width="104"
     height="100"
     x="12.000004"
     y="11.999996"
     rx="8"
     ry="8" /><path
     style="fill:#8ed900;stroke-width:1.00016"
     d="m 64.000007,11.999996 c -27.613683,0 -50.000005,22.361487 -50.000005,49.984368 C 14.000002,89.607255 36.386324,112 64.000007,112 91.61427,112 114.00001,89.607255 114.00001,61.984364 c 0,-27.622881 -22.38574,-49.984368 -50.000003,-49.984368 z m 0,12.003751 c 20.987042,0 38.000003,16.987588 38.000003,37.980617 0,20.9936 -17.012961,38.043136 -38.000003,38.043136 -20.986462,0 -38.000004,-17.049536 -38.000004,-38.043136 0,-20.993029 17.013542,-37.980617 38.000004,-37.980617 z"
     id="path3001" /><path
     id="_471970800"
     style="fill:#4d4d4d"
     class="fil2"
     transform="matrix(5.7120336,0,0,5.7120336,11.99973,11.99991)"
     d="M 18.207224,7.70289 V 9.80372 H 4.20177 V 10.8542 H 1.03387e-4 V 6.65257 H 4.20177 v 1.05032 z" /><path
     id="path4"
     style="fill:#8ed900"
     class="fil1"
     d="M 116 24.138672 L 116 19.990234 C 115.99524 15.564637 112.43367 12.003684 108.00781 12 L 103.86133 12 L 103.86133 24.138672 L 116 24.138672 z " /><path
     id="path5"
     style="fill:#8ed900"
     class="fil1"
     d="M 103.86133 112 L 108 112 C 112.42904 112 115.99524 108.43765 116 104.00977 L 116 99.861328 L 103.86133 99.861328 L 103.86133 112 z " /><path
     id="_471970440"
     style="fill:#8ed900"
     class="fil1"
     d="M 19.992188 12 C 15.565243 12.003685 12.003009 15.567032 12 19.994141 L 12 24.138672 L 24.138672 24.138672 L 24.138672 12 L 19.992188 12 z " /><path
     id="path6"
     style="fill:#8ed900"
     class="fil1"
     d="M 12 99.861328 L 12 104.00586 C 12.003011 108.43526 15.569871 112 20 112 L 24.138672 112 L 24.138672 99.861328 L 12 99.861328 z " /></svg>

<svg xmlns="http://www.w3.org/2000/svg" xmlns:xlink="http://www.w3.org/1999/xlink" xml:space="preserve" width="128" height="128"><defs><linearGradient xlink:href="#a" id="b" x1="12" x2="116" y1="66" y2="66" gradientUnits="userSpaceOnUse"/><linearGradient id="a"><stop offset="0" style="stop-color:#000;stop-opacity:1"/><stop offset=".036" style="stop-color:#fff;stop-opacity:1"/><stop offset=".073" style="stop-color:#000;stop-opacity:1"/><stop offset=".927" style="stop-color:#000;stop-opacity:.99000001"/><stop offset=".961" style="stop-color:#fff;stop-opacity:1"/><stop offset="1" style="stop-color:#000;stop-opacity:1"/></linearGradient></defs><rect width="104" height="100" x="12" y="16" rx="8" ry="8" style="display:inline;fill:#fff;fill-opacity:1;stroke:none;stroke-width:.25;stroke-linecap:butt;stroke-linejoin:miter;stroke-miterlimit:4;stroke-dasharray:none;stroke-dashoffset:0;stroke-opacity:1;marker:none;marker-start:none;marker-mid:none;marker-end:none;paint-order:normal"/><path d="M103.861 116H108a7.98 7.98 0 0 0 8-7.99v-4.149h-12.139zM12 103.861v4.145A7.98 7.98 0 0 0 20 116h4.139v-12.139z" class="fil1" style="fill:#8ed900"/><rect width="104" height="100" x="12" y="16" rx="8" ry="8" style="display:inline;opacity:.4;fill:url(#b);fill-opacity:1;stroke:none;stroke-width:.25;stroke-linecap:butt;stroke-linejoin:miter;stroke-miterlimit:4;stroke-dasharray:none;stroke-dashoffset:0;stroke-opacity:1;marker:none;marker-start:none;marker-mid:none;marker-end:none;paint-order:normal"/><rect width="104" height="100" x="12" y="12" rx="8" ry="8" style="display:inline;fill:#fff;fill-opacity:1;stroke:none;stroke-width:.25;stroke-linecap:butt;stroke-linejoin:miter;stroke-miterlimit:4;stroke-dasharray:none;stroke-dashoffset:0;stroke-opacity:1;marker:none;marker-start:none;marker-mid:none;marker-end:none;paint-order:normal"/><path d="M64 12c-27.614 0-50 22.361-50 49.984S36.386 112 64 112s50-22.393 50-50.016S91.614 12 64 12m0 12.004c20.987 0 38 16.987 38 37.98 0 20.994-17.013 38.043-38 38.043S26 82.979 26 61.985c0-20.993 17.014-37.98 38-37.98" style="fill:#8ed900;stroke-width:1.00016"/><path d="M18.207 7.703v2.1H4.202v1.051H0V6.653h4.202v1.05z" class="fil2" style="fill:#4d4d4d" transform="translate(12 12)scale(5.71203)"/><path d="M116 24.139V19.99a7.98 7.98 0 0 0-7.992-7.99h-4.147v12.139zM103.861 112H108a7.98 7.98 0 0 0 8-7.99V99.86h-12.139zM19.992 12A7.98 7.98 0 0 0 12 19.994v4.145h12.139V12zM12 99.861v4.145A7.98 7.98 0 0 0 20 112h4.139V99.861z" class="fil1" style="fill:#8ed900"/></svg>
